X: 27
T: The Rose of Allandale
C: Daniel Dow (1732-1783)
R: song
M: C
L: 1/8
N: This is a Victorian parlour song which passed into the traditional repertoire.
Z: 2010 John Chambers <jc:trillian.mit.edu>
N: A lot of note heads are borderline cases between two notes, so some notes may be off by one.
B: Anonymous manuscript tune book (1800-1840) p.90
F: http://www.asaplive.com/archive/browse_by_collection.asp
N: The asaplive.com web site is complex, and links to its files don't usually work.
K: D
A2 |\
f3e d2c2 | edcB A3A | d3f fedf | d4 c2A2 |
f3e d3c | edcB A3A | BcdB cdef | d4 z2 ||
d2 |\
e2c2 A2cd | f2d2 A2zA | f2f2 fedf | d4 c2A2 {ABcdefga}A2 |
f3e d3c | edcB A3A | BcdB cdef | d4 z2 ||
a2 |\
a2f2 f2d2 | B4 G2z2 {GABcdefg}x | g3f fedf | e4 z2 |
A2 | B3c edcB | A2{cdefg}a2 c2A2 | BcdB cdef | d4 z2 |]


%%sep 5 1 500

